img/pay_wrapper-sistem3.svg

<svg width="111" height="20" viewBox="0 0 111 20" fill="none" xmlns="http://www.w3.org/2000/svg">
<g clip-path="url(#clip0_2342_62048)">
<path d="M96.1678 5.37292C95.1475 5.37292 94.032 5.72896 93.1303 6.6544C92.2998 7.50865 91.8729 8.57619 91.8729 9.81011C91.8729 10.3796 91.9915 10.9252 92.2048 11.4712C92.4186 12.0172 92.727 12.4918 93.1067 12.8949C93.5101 13.3223 93.9846 13.6542 94.4832 13.8677C95.005 14.0813 95.4793 14.2 96.0965 14.2C96.5471 14.2 96.9745 14.1287 97.4016 13.9864C97.805 13.8677 98.3745 13.5359 98.588 13.18V14.0341H100.439V5.56248H98.5644V6.41711C98.3036 5.98998 97.805 5.70485 97.4016 5.56248C96.9982 5.44383 96.595 5.37292 96.1678 5.37292ZM86.4861 5.39656C86.059 5.39656 85.6553 5.4442 85.2519 5.58658C84.8485 5.72895 84.3508 6.01361 84.0895 6.44074V5.58658H82.2148V17.2139V17.238H84.0654V13.204C84.279 13.56 84.8485 13.8681 85.2519 14.0105C85.6553 14.1531 86.1062 14.2237 86.557 14.2237C87.174 14.2237 87.6488 14.1054 88.1708 13.8918C88.6694 13.6785 89.1441 13.3459 89.5473 12.9186C89.9272 12.5154 90.2356 12.0408 90.4492 11.4948C90.6625 10.9728 90.781 10.4032 90.781 9.83375C90.781 8.59982 90.3537 7.53229 89.5232 6.67803C88.6215 5.75259 87.53 5.39656 86.4861 5.39656ZM101.578 5.58658L105.185 13.5359L103.619 17.2139H105.565L110.477 5.58658H108.507L106.111 11.5662L103.548 5.58658H101.578ZM96.2392 7.01034C96.9034 7.01034 97.4967 7.2239 97.9953 7.72221C98.4934 8.24426 98.6831 9.00359 98.6831 9.7392C98.6831 10.546 98.5175 11.3053 98.0189 11.8271C97.5206 12.3489 96.927 12.539 96.2151 12.539C95.5032 12.539 94.9338 12.2543 94.4832 11.8035C93.9846 11.2812 93.7472 10.5933 93.7472 9.83375C93.7472 9.02695 93.9846 8.29153 94.4832 7.76949C94.9103 7.31863 95.5034 7.0343 96.2392 7.01034ZM86.4152 7.03397C87.1271 7.03397 87.7439 7.31854 88.1713 7.79312C88.6698 8.31517 88.9072 9.02732 88.9072 9.85785C88.9072 10.6172 88.6698 11.3053 88.1713 11.8271C87.7441 12.2782 87.1512 12.5626 86.4393 12.5626C85.7274 12.5626 85.1338 12.373 84.6355 11.8507C84.1609 11.3289 83.9709 10.5457 83.9709 9.76284C83.9709 9.0035 84.1608 8.26789 84.6591 7.74585C85.1337 7.24753 85.7271 7.03397 86.4152 7.03397Z" fill="#211F1F"/>
<path d="M31.1727 6.51221C29.8913 6.51221 28.8473 6.93961 28.6575 8.10235C28.6101 8.41083 28.61 8.69548 28.6811 9.07515C28.9659 10.5696 31.5287 10.9731 31.8846 11.8986C31.9558 12.0644 31.932 12.3018 31.9082 12.4204C31.837 12.6577 31.6947 12.895 31.1964 12.895C30.7455 12.895 30.4845 12.6339 30.4845 12.2545V11.5663H28.5625V12.1122C28.5625 13.726 29.8202 14.2006 31.1727 14.2006C32.4778 14.2006 33.5459 13.7496 33.712 12.5632C33.8069 11.9462 33.7358 11.543 33.712 11.3767C33.4036 9.882 30.6743 9.43095 30.4845 8.57693C30.4607 8.43456 30.4607 8.29227 30.4845 8.19736C30.5319 7.96006 30.6982 7.72277 31.1491 7.72277C31.5762 7.72277 31.8137 7.98361 31.8137 8.36327V8.81422H33.5934V8.316C33.5934 6.74987 32.1931 6.51221 31.1727 6.51221H31.1727ZM76.2111 6.55948C74.9295 6.55948 73.8615 6.98661 73.6954 8.33918C73.6954 8.45782 73.6718 8.69511 73.6718 8.81376V11.8272C73.6718 11.9696 73.6717 12.0645 73.6954 12.3018C73.8141 13.6069 74.9532 14.0815 76.2111 14.0815C77.4922 14.0815 78.6313 13.6069 78.7499 12.3018C78.7739 12.0645 78.7736 11.9696 78.7736 11.8272V9.90521H76.2347V10.9494H76.9702V11.9931C76.9702 12.0645 76.9703 12.1831 76.9466 12.2545C76.8989 12.4441 76.7329 12.7764 76.2111 12.7764C75.6891 12.7764 75.4992 12.4679 75.4992 12.2304C75.4753 12.1595 75.4751 12.0644 75.4751 11.9695V8.69511C75.4751 8.57647 75.4753 8.45773 75.4992 8.36281C75.5464 8.19671 75.6891 7.84095 76.2111 7.84095C76.7569 7.84095 76.899 8.19671 76.923 8.36281C76.9467 8.48146 76.9466 8.64738 76.9466 8.64738V9.05105H78.7499V8.81376C78.7499 8.81376 78.75 8.55274 78.7263 8.33918C78.6077 6.98661 77.4922 6.55948 76.2111 6.55948L76.2111 6.55948ZM54.5465 6.60722C53.2889 6.60722 52.2448 7.01052 52.055 8.17326C52.0075 8.48174 51.9837 8.76649 52.0786 9.12243C52.3394 10.5697 54.8547 10.9731 55.2107 11.8986C55.2819 12.0644 55.258 12.2783 55.2343 12.4204C55.1868 12.6577 55.0207 12.895 54.5461 12.895C54.0952 12.895 53.8342 12.6339 53.8342 12.2545V11.5663H51.9358V12.1122C51.9358 13.7023 53.1936 14.1765 54.5224 14.1765C55.8038 14.1765 56.8715 13.7492 57.0376 12.5627C57.1326 11.9457 57.0616 11.543 57.0376 11.4003C56.7292 9.90564 54.0479 9.47837 53.8583 8.64784C53.8108 8.50547 53.8346 8.36318 53.8583 8.26827C53.9057 8.03097 54.0717 7.79368 54.4988 7.79368C54.9259 7.79368 55.1634 8.05452 55.1634 8.43419V8.88513H56.9431V8.38691C56.9431 6.84451 55.5432 6.60722 54.5465 6.60722H54.5465ZM36.2509 6.77314L34.9221 13.9392H36.8441L37.8406 7.41364H37.8647L38.8375 13.9392H40.7594L39.4307 6.77314H36.2509ZM42.3491 6.77314L42.1832 13.9392H43.9865L44.0343 7.48501H44.0815L45.268 13.9392H47.095L48.2814 7.48501H48.3292L48.3765 13.9392H50.1798L50.0139 6.77314H47.095L46.1935 12.2545H46.1699L45.2917 6.77314H42.3491ZM58.7223 6.77314V11.9222C58.7223 12.0646 58.746 12.3254 58.746 12.3968C58.8646 13.7491 59.9087 14.1765 61.2375 14.1765C62.5666 14.1765 63.6346 13.7256 63.7532 12.3968C63.7532 12.3254 63.7769 12.0646 63.7769 11.9222V6.77314H61.9499V12.0408C61.9499 12.1358 61.9494 12.2545 61.9258 12.3254C61.9021 12.5155 61.7366 12.8477 61.238 12.8477C60.7397 12.8477 60.5969 12.5155 60.5729 12.3732C60.5492 12.2782 60.5493 12.183 60.5493 12.0881V6.77314H58.7223ZM65.7702 6.77314V13.8678H67.5263L67.4313 8.03051H67.4785L69.2346 13.8678H71.7975V6.77314H70.0178L70.1124 12.3968H70.0888L68.4277 6.77314H65.7702Z" fill="#211F1F"/>
<path d="M20.6137 7.01015C20.3764 5.15926 19.7119 3.47449 18.5492 2.24056C17.3153 1.07783 15.6305 0.413409 13.7796 0.176116C11.9999 -0.061177 10.7897 0.0100108 10.7897 0.0100108C10.7897 0.0100108 9.57954 -0.0374478 7.79984 0.176116C5.94896 0.413409 4.26418 1.07783 3.03026 2.24056C1.86752 3.47449 1.2031 5.15926 0.965812 7.01015C0.728519 8.78984 0.775977 10 0.775977 10C0.775977 10 0.728519 11.2102 0.942082 12.9899C1.17938 14.8406 1.84379 16.5256 3.00653 17.7595C4.24045 18.9222 5.92523 19.5864 7.77611 19.8237C9.55581 20.061 10.766 19.9901 10.766 19.9901C10.766 19.9901 11.9762 20.0373 13.7559 19.8237C15.6068 19.5864 17.2916 18.9222 18.5255 17.7595C19.6882 16.5258 20.3526 14.8406 20.5899 12.9899C20.8272 11.2102 20.756 10 20.756 10C20.756 10 20.8509 8.78984 20.6137 7.01015Z" fill="#1E4BC6"/>
<path d="M4.47852 7.0813V12.3254H5.45132V10.8307H6.25821C6.54296 10.8307 6.80426 10.7829 7.01783 10.688C7.23139 10.5935 7.44495 10.4506 7.61106 10.2848C7.77716 10.1189 7.91935 9.92881 8.01427 9.69152C8.10919 9.45423 8.15655 9.21703 8.15655 8.95601C8.15655 8.69498 8.10919 8.45778 8.01427 8.22049C7.91935 7.9832 7.77716 7.79337 7.61106 7.62726C7.44495 7.46116 7.25512 7.3185 7.01783 7.22358C6.78053 7.12867 6.54296 7.0813 6.25821 7.0813L4.47852 7.0813ZM5.42769 7.95956H6.1873C6.32968 7.95956 6.47187 7.98348 6.59051 8.03094C6.70916 8.07839 6.80426 8.14921 6.89918 8.24413C6.97037 8.33904 7.04128 8.43415 7.08874 8.55279C7.1362 8.67144 7.16011 8.78999 7.16011 8.93237C7.16011 9.07475 7.1362 9.1933 7.08874 9.31195C7.04128 9.43059 6.9941 9.52569 6.89918 9.62061C6.80426 9.71553 6.70916 9.78681 6.59051 9.83427C6.47187 9.88173 6.32968 9.90518 6.1873 9.90518H5.42769V7.9832V7.95956ZM10.4108 8.10185C10.1261 8.10185 9.88907 8.14921 9.62805 8.24413C9.39075 8.33904 9.15328 8.4575 8.96344 8.64734C8.77361 8.83717 8.6075 9.05092 8.48886 9.31195C8.37021 9.57297 8.32294 9.88163 8.32294 10.2138C8.32294 10.5461 8.39385 10.8543 8.51249 11.1153C8.63114 11.3763 8.79725 11.5898 8.98708 11.7799C9.17691 11.9458 9.41439 12.0882 9.65168 12.1831C9.91271 12.2782 10.1498 12.3254 10.4108 12.3254C10.6956 12.3254 10.9332 12.2785 11.1705 12.1831C11.4077 12.0644 11.6213 11.9222 11.7637 11.7321V12.3254H12.7365V8.10185H11.7637V8.64734C11.5976 8.48123 11.4077 8.33904 11.1705 8.24413C10.9569 8.14921 10.6956 8.10185 10.4108 8.10185ZM13.0688 8.12548L14.7771 12.1358L13.8993 14.2478H14.8958L17.3873 8.12548H16.3668L15.2753 10.9966L14.0889 8.12548H13.0688ZM10.5772 9.00374C10.7433 9.00374 10.9093 9.02747 11.0754 9.12239C11.2415 9.19358 11.36 9.26467 11.4787 9.38332C11.5973 9.47823 11.6684 9.62052 11.7396 9.76289C11.8108 9.90503 11.8346 10.0711 11.8346 10.2375C11.8346 10.4033 11.8108 10.5692 11.7396 10.7121C11.6684 10.8544 11.5973 10.973 11.4787 11.0916C11.36 11.2103 11.2178 11.2818 11.0754 11.353C10.9331 11.4242 10.7671 11.4476 10.5772 11.4476C10.3874 11.4476 10.2209 11.4003 10.0785 11.353C9.93616 11.2816 9.79397 11.2103 9.67532 11.0916C9.5804 10.973 9.48558 10.8313 9.41439 10.6884C9.3432 10.5461 9.31938 10.3799 9.31938 10.2138C9.31938 10.0477 9.3432 9.88163 9.41439 9.73926C9.46185 9.59688 9.55667 9.47833 9.67532 9.35968C9.79397 9.24103 9.91243 9.16994 10.0785 9.09875C10.2446 9.02756 10.4111 9.00374 10.5772 9.00374Z" fill="white"/>
</g>
<defs>
<clipPath id="clip0_2342_62048">
<rect width="109.705" height="20" fill="white" transform="translate(0.771484)"/>
</clipPath>
</defs>
</svg>

<svg width="111" height="20" viewBox="0 0 111 20" fill="none" xmlns="http://www.w3.org/2000/svg"><g clip-path="url(#a)"><path d="M96.168 5.373a4.19 4.19 0 0 0-3.038 1.281c-.83.855-1.257 1.922-1.257 3.156 0 .57.118 1.115.332 1.661a4.41 4.41 0 0 0 .902 1.424c.403.427.878.76 1.376.973a4 4 0 0 0 1.614.332c.45 0 .878-.071 1.305-.214.403-.118.972-.45 1.186-.806v.854h1.851V5.562h-1.875v.855c-.26-.427-.759-.712-1.162-.855a4.32 4.32 0 0 0-1.234-.19zm-9.682.024c-.427 0-.83.047-1.234.19-.403.142-.901.427-1.162.854v-.854h-1.875v11.651h1.85v-4.034c.214.356.784.664 1.187.806.403.143.854.214 1.305.214.617 0 1.092-.119 1.614-.332a4.163 4.163 0 0 0 1.376-.973c.38-.404.689-.878.902-1.424a4.419 4.419 0 0 0 .332-1.661c0-1.234-.427-2.302-1.258-3.156a4.15 4.15 0 0 0-3.037-1.281zm15.092.19l3.607 7.949-1.566 3.678h1.946l4.912-11.627h-1.97l-2.396 5.98-2.563-5.98h-1.97zM96.239 7.01c.664 0 1.258.214 1.756.712.498.522.688 1.282.688 2.017 0 .807-.166 1.566-.664 2.088s-1.092.712-1.804.712-1.281-.285-1.732-.736c-.498-.522-.736-1.21-.736-1.97 0-.806.238-1.541.736-2.064.427-.45 1.02-.735 1.756-.759zm-9.824.024c.712 0 1.329.285 1.756.76.499.521.736 1.233.736 2.064 0 .76-.237 1.447-.736 1.97a2.338 2.338 0 0 1-1.732.735c-.712 0-1.305-.19-1.803-.712-.475-.522-.665-1.305-.665-2.088 0-.76.19-1.495.688-2.017.475-.498 1.068-.712 1.756-.712zm-55.242-.522c-1.282 0-2.326.428-2.515 1.59-.048.309-.048.593.023.973.285 1.495 2.848 1.898 3.204 2.824.07.165.047.403.023.521-.071.238-.213.475-.712.475-.45 0-.712-.261-.712-.64v-.689h-1.922v.546c0 1.614 1.258 2.089 2.61 2.089 1.306 0 2.374-.451 2.54-1.638.095-.617.024-1.02 0-1.186-.308-1.495-3.038-1.946-3.228-2.8a1.01 1.01 0 0 1 0-.38c.048-.237.214-.474.665-.474.427 0 .665.26.665.64v.451h1.78v-.498c0-1.566-1.4-1.804-2.421-1.804zm45.038.047c-1.281 0-2.35.428-2.516 1.78 0 .119-.023.356-.023.475v3.013c0 .143 0 .238.023.475.12 1.305 1.258 1.78 2.516 1.78 1.281 0 2.42-.475 2.539-1.78.024-.237.024-.332.024-.475V9.905h-2.54v1.044h.736v1.044c0 .072 0 .19-.023.261-.048.19-.214.522-.736.522s-.712-.308-.712-.546a.881.881 0 0 1-.024-.26V8.694c0-.119 0-.237.024-.332.047-.166.19-.522.712-.522.546 0 .688.356.712.522.024.118.024.284.024.284v.404h1.803v-.237s0-.261-.024-.475c-.118-1.352-1.234-1.78-2.515-1.78zm-21.664.048c-1.258 0-2.302.404-2.492 1.566-.047.309-.071.593.024.95.26 1.447 2.776 1.85 3.132 2.776.07.165.047.38.023.521-.047.238-.213.475-.688.475-.45 0-.712-.261-.712-.64v-.689h-1.898v.546c0 1.59 1.258 2.065 2.586 2.065 1.282 0 2.35-.428 2.516-1.614.095-.617.024-1.02 0-1.163-.309-1.494-2.99-1.922-3.18-2.752a.682.682 0 0 1 0-.38c.048-.237.214-.474.64-.474.428 0 .665.26.665.64v.451h1.78v-.498c0-1.542-1.4-1.78-2.396-1.78zm-18.296.166l-1.329 7.166h1.922l.997-6.525h.024l.972 6.525h1.922l-1.328-7.166h-3.18zm6.098 0l-.166 7.166h1.803l.048-6.454h.047l1.187 6.454h1.827l1.186-6.454h.048l.047 6.454h1.804l-.166-7.166h-2.919l-.901 5.482h-.024l-.878-5.482h-2.943zm16.373 0v5.15c0 .142.024.402.024.474.119 1.352 1.163 1.78 2.491 1.78 1.33 0 2.398-.451 2.516-1.78 0-.072.024-.332.024-.475V6.773H61.95v5.268c0 .095 0 .213-.024.284-.024.19-.19.523-.688.523-.498 0-.641-.333-.665-.475-.024-.095-.024-.19-.024-.285V6.773h-1.827zm7.048 0v7.095h1.756l-.095-5.837h.047l1.757 5.837h2.563V6.773h-1.78l.094 5.624h-.023l-1.661-5.624H65.77z" fill="#211F1F"/><path d="M20.614 7.01c-.238-1.85-.902-3.536-2.065-4.77C17.315 1.079 15.631.414 13.78.177 12-.06 10.79.01 10.79.01S9.58-.037 7.8.176c-1.85.237-3.535.902-4.769 2.065C1.868 3.474 1.203 5.159.966 7.01.729 8.79.776 10 .776 10s-.047 1.21.166 2.99c.237 1.85.902 3.536 2.065 4.77 1.233 1.162 2.918 1.826 4.77 2.064 1.779.237 2.989.166 2.989.166s1.21.047 2.99-.166c1.85-.238 3.536-.902 4.77-2.065 1.162-1.233 1.827-2.918 2.064-4.77.237-1.779.166-2.989.166-2.989s.095-1.21-.142-2.99z" fill="#1E4BC6"/><path d="M4.479 7.081v5.244h.972v-1.494h.807c.285 0 .546-.048.76-.143.213-.095.427-.237.593-.403a1.75 1.75 0 0 0 .403-.593c.095-.238.143-.475.143-.736s-.048-.498-.143-.736a1.752 1.752 0 0 0-.403-.593 1.753 1.753 0 0 0-.593-.403 1.969 1.969 0 0 0-.76-.143h-1.78zm.949.879h.76c.142 0 .284.023.403.07a.902.902 0 0 1 .308.214c.071.095.142.19.19.309a.983.983 0 0 1 .071.38c0 .142-.024.26-.071.379a.904.904 0 0 1-.498.522c-.12.048-.261.071-.404.071h-.76V7.96zm4.983.142a2.18 2.18 0 0 0-.783.142c-.237.095-.475.213-.665.403-.19.19-.355.404-.474.665s-.166.57-.166.902c0 .332.07.64.19.901.118.261.284.475.474.665.19.166.427.308.665.403.26.095.498.142.759.142.285 0 .522-.046.76-.142.237-.119.45-.26.593-.45v.592h.973V8.102h-.973v.545a1.753 1.753 0 0 0-.593-.403 1.887 1.887 0 0 0-.76-.142zm2.658.023l1.708 4.01-.878 2.113h.997l2.491-6.123h-1.02l-1.092 2.872-1.186-2.872h-1.02zm-2.492.879a.96.96 0 0 1 .498.118c.167.072.285.143.404.261.118.095.19.238.26.38.072.142.096.308.096.475 0 .165-.024.331-.095.474a1.4 1.4 0 0 1-.261.38 1.47 1.47 0 0 1-.404.261 1.1 1.1 0 0 1-.498.095c-.19 0-.356-.048-.498-.095a1.479 1.479 0 0 1-.404-.261 2.327 2.327 0 0 1-.26-.404 1.062 1.062 0 0 1-.096-.474c0-.166.024-.332.095-.475a.993.993 0 0 1 .261-.38c.119-.118.237-.19.403-.26a1.25 1.25 0 0 1 .5-.095z" fill="#fff"/></g><defs><clipPath id="a"><path fill="#fff" transform="translate(.771)" d="M0 0h109.705v20H0z"/></clipPath></defs></svg>
